X:97
T:Williams' Hornpipe
N:Allan's    #97  pp25
N:Trad/Anon
N:CONVERTED FROM NOTEWORTHY COMPOSER  (WWW.NOTEWORTHYSOFTWARE.COM) BY
N:ABC2NWC (HTTP://MEMBERS.AOL.COM/ABACUSMUSIC/), WITH
Z: (INTO NWC) VINCE BRENNAN 2002   (WWW.SOSYOURMOM.COM)
I:abc2nwc
M:4/4
L:1/8
K:G
((3DEF)| ((3GBG)  ((3FAF)  ((3EGE) D3/2G/2|B3/2F/2G3/2B/2 A3/2G/2E3/2D/2|G3/2B/2d3/2g/2 e3/2c/2A3/2F/2|G3/2g/2f3/2e/2  ((3ded)  ((3cBA)|
 ((3GBG)  ((3FAF)  ((3EGE) D3/2G/2|B3/2F/2G3/2B/2 A3/2G/2E3/2D/2|G3/2B/2d3/2g/2 e3/2c/2A3/2F/2|G3/2B/2  ((3AGF) G2:|
|: ((3Bcd)|e3/2B/2  ((3BBB) g3/2B/2  ((3BBB)|e3/2B/2g3/2B/2 e3/2B/2  ((3BBB)|d3/2A/2  ((3AAA) f3/2A/2  ((3AAA)|d3/2g/2f3/2e/2  ((3ded)  ((3cBA)|
((3GBG)  ((3FAF)  ((3EGE) D3/2G/2|B3/2F/2G3/2B/2 A3/2G/2E3/2D/2|G3/2B/2d3/2g/2 e3/2c/2A3/2F/2|G3/2B/2  ((3AGF) G2:|
